source/Icon/certificate.svg

<svg width="32" height="32" viewBox="0 0 48 48" fill="none" xmlns="http://www.w3.org/2000/svg">
    <path d="M26 36H6C4.89543 36 4 35.1046 4 34V8C4 6.89543 4.89543 6 6 6H42C43.1046 6 44 6.89543 44 8V34C44 35.1046 43.1046 36 42 36H34" stroke="#000000" stroke-width="4" stroke-linecap="round" stroke-linejoin="round"/>
    <path d="M12 14H36" stroke="#000000" stroke-width="4" stroke-linecap="round" stroke-linejoin="round"/>
    <path d="M12 21H18" stroke="#000000" stroke-width="4" stroke-linecap="round" stroke-linejoin="round"/>
    <path d="M12 28H16" stroke="#000000" stroke-width="4" stroke-linecap="round" stroke-linejoin="round"/>
    <path d="M30 33C33.3137 33 36 30.3137 36 27C36 23.6863 33.3137 21 30 21C26.6863 21 24 23.6863 24 27C24 30.3137 26.6863 33 30 33Z" fill="#2F88FF" stroke="#000000" stroke-width="4"/>
    <path d="M30 40L34 42V31.4722C34 31.4722 32.8594 33 30 33C27.1406 33 26 31.5 26 31.5V42L30 40Z" fill="#2F88FF" stroke="#000000" stroke-width="4" stroke-linecap="round" stroke-linejoin="round"/>
</svg>

<svg width="48" height="48" viewBox="0 0 48 48" fill="none" xmlns="http://www.w3.org/2000/svg">
    <path stroke-linejoin="round" stroke-linecap="round" stroke-width="4" stroke="#333"
        d="M26 36H6a2 2 0 0 1-2-2V8a2 2 0 0 1 2-2h36a2 2 0 0 1 2 2v26a2 2 0 0 1-2 2h-8M12 14h24M12 21h6M12 28h4" />
    <path stroke-width="4" stroke="#333" d="M30 33a6 6 0 1 0 0-12 6 6 0 0 0 0 12Z" />
    <path stroke-linejoin="round" stroke-linecap="round" stroke-width="4" stroke="#333"
        d="m30 40 4 2V31.472S32.86 33 30 33c-2.86 0-4-1.5-4-1.5V42l4-2Z" />
</svg>
